X:1
T:Title
%%score { ( 1 3 ) | ( 2 4 ) }
L:1/8
M:4/4
K:G
V:1 treble nm="Grand Piano"
V:3 treble 
V:2 treble 
V:4 treble 
V:1
 z4 z2[Q:1/4=100] GA | B2 B2 BAGB | d2 d2 d2 dd | [Ge]2 [Ge]2 ddBB | c2 B2 z CGA | B2 B2 BAGB | %6
 d2 [Fd]2 d2 BB | A2 A2 AdAG |[M:7/8] F2 z z z z2 |[M:4/4] d3 B d4 | B3 G B2 [DGB][DGB] | %11
 [DFA]3 [DGB] [DFA]2 [^CEG]2 | .[DF]2[K:bass] [G,^CE]2 [F,D]2[K:treble] [G,DG][DA] | %13
 [DB]2 [DB]2 BAGB | d2 [Fd]2 [Gd]2 [Ge][Ge] | [Gd] [Gd]2 [B,G] [DGB]2 [CFA]2 |[M:3/4] G6 |] %17
V:2
 z4 z2 [G,B,D][G,CD] | [G,DG]2 [G,DG]2 [G,DG][G,CG][G,B,][G,DG] | %2
 [G,B,G]2 [A,CF]2 [G,B,G]2 [G,B,G][G,B,G] | [C,C]2 [C,C]2[K:treble] [G,B,G][G,B,G][G,DG][G,DG] | %4
 [G,EG]2 [G,DG]2[K:bass] .[D,D]2 [G,B,][K:treble][G,CG] | %5
 [G,DG]2 [G,DG]2 [G,DG][G,CG][G,B,][G,DG] | [G,B,G]2 [D,C]2 [G,B,G]2 [G,DG][G,DG] | %7
 [A,DF]2 [A,DF]2 [A,DF][A,F][A,DF][K:bass][A,^CE] |[M:7/8] z A, A,,2 [D,F,]3 | %9
[M:4/4][K:treble] [G,B,G]3 [G,DG] [G,B,G]4 | [G,DG]3 [G,B,] [G,DG]2[K:bass] G,,G,, | %11
 A,,3 A,, A,,2 A,,2 | z A, A,,2 D,C,B,,[A,,F,] | %13
 [G,,G,]2 [G,,G,]2[K:treble] [G,DG][G,CG][G,B,][G,DG] | %14
 [G,B,G]2[K:bass] [D,C]2 [G,B,]2 [C,C][C,C] | [D,B,] [D,B,]2 D, D,2 D,2 |[M:3/4] z2 C2 B,2 |] %17
V:3
 x8 | x8 | x8 | x8 | z4 [FA]2 z2 | x8 | x8 | x8 |[M:7/8] D z [G,^CE]2 D3 |[M:4/4] x8 | x8 | x8 | %12
 x2[K:bass] x4[K:treble] x2 | x8 | x8 | x8 |[M:3/4] B,2 E2 D2 |] %17
V:4
 x8 | x8 | x8 | x4[K:treble] x4 | x4[K:bass] x3[K:treble] x | x8 | x8 | x7[K:bass] x | %8
[M:7/8] A,,2 z z z z2 |[M:4/4][K:treble] x8 | x6[K:bass] x2 | x8 | A,,2 z2 z4 | x4[K:treble] x4 | %14
 x2[K:bass] x6 | x8 |[M:3/4] G,,6 |] %17

